images/226122.svg

<?xml version="1.0" encoding="UTF-8"?>
<svg xmlns="http://www.w3.org/2000/svg" xmlns:xlink="http://www.w3.org/1999/xlink" width="300pt" height="300pt" viewBox="0 0 300 300" version="1.1">
<defs>
<g>
<symbol overflow="visible" id="glyph0-0">
<path style="stroke:none;" d="M 0.546875 1.9375 L 0.546875 -7.75 L 6.046875 -7.75 L 6.046875 1.9375 Z M 1.171875 1.328125 L 5.4375 1.328125 L 5.4375 -7.140625 L 1.171875 -7.140625 Z M 1.171875 1.328125 "/>
</symbol>
<symbol overflow="visible" id="glyph0-1">
<path style="stroke:none;" d="M 4.328125 -7.28125 C 3.546875 -7.28125 2.921875 -6.984375 2.453125 -6.390625 C 1.992188 -5.804688 1.765625 -5.007812 1.765625 -4 C 1.765625 -2.988281 1.992188 -2.1875 2.453125 -1.59375 C 2.921875 -1.007812 3.546875 -0.71875 4.328125 -0.71875 C 5.117188 -0.71875 5.742188 -1.007812 6.203125 -1.59375 C 6.660156 -2.1875 6.890625 -2.988281 6.890625 -4 C 6.890625 -5.007812 6.660156 -5.804688 6.203125 -6.390625 C 5.742188 -6.984375 5.117188 -7.28125 4.328125 -7.28125 Z M 4.328125 -8.171875 C 5.453125 -8.171875 6.351562 -7.789062 7.03125 -7.03125 C 7.707031 -6.28125 8.046875 -5.269531 8.046875 -4 C 8.046875 -2.738281 7.707031 -1.726562 7.03125 -0.96875 C 6.351562 -0.21875 5.453125 0.15625 4.328125 0.15625 C 3.203125 0.15625 2.300781 -0.21875 1.625 -0.96875 C 0.957031 -1.71875 0.625 -2.726562 0.625 -4 C 0.625 -5.269531 0.957031 -6.28125 1.625 -7.03125 C 2.300781 -7.789062 3.203125 -8.171875 4.328125 -8.171875 Z M 4.328125 -8.171875 "/>
</symbol>
<symbol overflow="visible" id="glyph0-2">
<path style="stroke:none;" d="M 1.078125 -8.015625 L 2.171875 -8.015625 L 2.171875 -4.734375 L 6.109375 -4.734375 L 6.109375 -8.015625 L 7.1875 -8.015625 L 7.1875 0 L 6.109375 0 L 6.109375 -3.8125 L 2.171875 -3.8125 L 2.171875 0 L 1.078125 0 Z M 1.078125 -8.015625 "/>
</symbol>
<symbol overflow="visible" id="glyph0-3">
<path style="stroke:none;" d="M 1.078125 -8.015625 L 2.546875 -8.015625 L 6.09375 -1.3125 L 6.09375 -8.015625 L 7.15625 -8.015625 L 7.15625 0 L 5.6875 0 L 2.125 -6.703125 L 2.125 0 L 1.078125 0 Z M 1.078125 -8.015625 "/>
</symbol>
</g>
</defs>
<g id="surface10905">
<rect x="0" y="0" width="300" height="300" style="fill:rgb(100%,100%,100%);fill-opacity:1;stroke:none;"/>
<path style=" stroke:none;fill-rule:nonzero;fill:rgb(0%,0%,0%);fill-opacity:1;" d="M 163.324219 118.613281 L 160.445312 146.03125 L 170.003906 145.363281 Z M 163.324219 118.613281 "/>
<path style=" stroke:none;fill-rule:nonzero;fill:rgb(100%,100%,100%);fill-opacity:1;" d="M 157.226562 139.195312 L 174.226562 139.195312 L 174.226562 152.195312 L 157.226562 152.195312 Z M 157.226562 139.195312 "/>
<g style="fill:rgb(100%,0%,0%);fill-opacity:1;">
  <use xlink:href="#glyph0-1" x="157.226562" y="149.09668"/>
  <use xlink:href="#glyph0-2" x="165.626953" y="149.09668"/>
</g>
<path style="fill:none;stroke-width:1.2;stroke-linecap:butt;stroke-linejoin:miter;stroke:rgb(0%,0%,0%);stroke-opacity:1;stroke-miterlimit:10;" d="M 163.324219 118.613281 L 138.917969 106.714844 "/>
<path style="fill:none;stroke-width:1.2;stroke-linecap:butt;stroke-linejoin:miter;stroke:rgb(0%,0%,0%);stroke-opacity:1;stroke-miterlimit:10;" d="M 163.324219 118.613281 L 185.832031 103.425781 "/>
<path style=" stroke:none;fill-rule:nonzero;fill:rgb(0%,0%,0%);fill-opacity:1;" d="M 138.917969 106.714844 L 113.734375 117.929688 L 119.09375 125.875 Z M 138.917969 106.714844 "/>
<path style="fill:none;stroke-width:1.2;stroke-linecap:butt;stroke-linejoin:miter;stroke:rgb(0%,0%,0%);stroke-opacity:1;stroke-miterlimit:10;" d="M 138.917969 106.714844 L 137.019531 79.628906 "/>
<path style="fill:none;stroke-width:1.2;stroke-linecap:butt;stroke-linejoin:miter;stroke:rgb(0%,0%,100%);stroke-opacity:1;stroke-miterlimit:10;" d="M 116.414062 121.902344 L 117.363281 135.445312 "/>
<path style="fill:none;stroke-width:1.2;stroke-linecap:butt;stroke-linejoin:miter;stroke:rgb(0%,0%,0%);stroke-opacity:1;stroke-miterlimit:10;" d="M 117.363281 135.445312 L 118.3125 148.988281 "/>
<path style=" stroke:none;fill-rule:nonzero;fill:rgb(100%,100%,100%);fill-opacity:1;" d="M 108.414062 115.402344 L 125.414062 115.402344 L 125.414062 128.402344 L 108.414062 128.402344 Z M 108.414062 115.402344 "/>
<g style="fill:rgb(0%,0%,100%);fill-opacity:1;">
  <use xlink:href="#glyph0-3" x="108.414062" y="125.303711"/>
  <use xlink:href="#glyph0-2" x="116.397461" y="125.303711"/>
</g>
<path style="fill:none;stroke-width:1.2;stroke-linecap:butt;stroke-linejoin:miter;stroke:rgb(0%,0%,0%);stroke-opacity:1;stroke-miterlimit:10;" d="M 118.3125 148.988281 L 130.515625 154.9375 "/>
<path style="fill:none;stroke-width:1.2;stroke-linecap:butt;stroke-linejoin:miter;stroke:rgb(0%,0%,100%);stroke-opacity:1;stroke-miterlimit:10;" d="M 130.515625 154.9375 L 142.71875 160.882812 "/>
<path style="fill:none;stroke-width:1.2;stroke-linecap:butt;stroke-linejoin:miter;stroke:rgb(0%,0%,0%);stroke-opacity:1;stroke-miterlimit:10;" d="M 117.953125 155.917969 L 127.714844 160.679688 "/>
<path style="fill:none;stroke-width:1.2;stroke-linecap:butt;stroke-linejoin:miter;stroke:rgb(0%,0%,100%);stroke-opacity:1;stroke-miterlimit:10;" d="M 127.714844 160.679688 L 137.480469 165.4375 "/>
<path style="fill:none;stroke-width:1.2;stroke-linecap:butt;stroke-linejoin:miter;stroke:rgb(0%,0%,100%);stroke-opacity:1;stroke-miterlimit:10;" d="M 95.804688 164.175781 L 107.058594 156.582031 "/>
<path style="fill:none;stroke-width:1.2;stroke-linecap:butt;stroke-linejoin:miter;stroke:rgb(0%,0%,0%);stroke-opacity:1;stroke-miterlimit:10;" d="M 107.058594 156.582031 L 118.3125 148.988281 "/>
<path style="fill:none;stroke-width:1.2;stroke-linecap:butt;stroke-linejoin:miter;stroke:rgb(0%,0%,100%);stroke-opacity:1;stroke-miterlimit:10;" d="M 142.71875 160.882812 L 143.667969 174.425781 "/>
<path style="fill:none;stroke-width:1.2;stroke-linecap:butt;stroke-linejoin:miter;stroke:rgb(0%,0%,0%);stroke-opacity:1;stroke-miterlimit:10;" d="M 143.667969 174.425781 L 144.617188 187.96875 "/>
<path style=" stroke:none;fill-rule:nonzero;fill:rgb(100%,100%,100%);fill-opacity:1;" d="M 138.71875 154.382812 L 146.71875 154.382812 L 146.71875 167.382812 L 138.71875 167.382812 Z M 138.71875 154.382812 "/>
<g style="fill:rgb(0%,0%,100%);fill-opacity:1;">
  <use xlink:href="#glyph0-3" x="138.71875" y="164.28418"/>
</g>
<path style="fill:none;stroke-width:1.2;stroke-linecap:butt;stroke-linejoin:miter;stroke:rgb(0%,0%,0%);stroke-opacity:1;stroke-miterlimit:10;" d="M 144.617188 187.96875 L 156.820312 193.917969 "/>
<path style="fill:none;stroke-width:1.2;stroke-linecap:butt;stroke-linejoin:miter;stroke:rgb(0%,0%,100%);stroke-opacity:1;stroke-miterlimit:10;" d="M 156.820312 193.917969 L 169.023438 199.867188 "/>
<path style="fill:none;stroke-width:1.2;stroke-linecap:butt;stroke-linejoin:miter;stroke:rgb(0%,0%,0%);stroke-opacity:1;stroke-miterlimit:10;" d="M 144.617188 187.96875 L 122.113281 203.15625 "/>
<path style="fill:none;stroke-width:1.2;stroke-linecap:butt;stroke-linejoin:miter;stroke:rgb(0%,0%,0%);stroke-opacity:1;stroke-miterlimit:10;" d="M 138.792969 184.191406 L 120.789062 196.34375 "/>
<path style="fill:none;stroke-width:1.2;stroke-linecap:butt;stroke-linejoin:miter;stroke:rgb(0%,0%,100%);stroke-opacity:1;stroke-miterlimit:10;" d="M 169.023438 199.867188 L 180.277344 192.273438 "/>
<path style="fill:none;stroke-width:1.2;stroke-linecap:butt;stroke-linejoin:miter;stroke:rgb(0%,0%,0%);stroke-opacity:1;stroke-miterlimit:10;" d="M 180.277344 192.273438 L 191.53125 184.679688 "/>
<path style=" stroke:none;fill-rule:nonzero;fill:rgb(100%,100%,100%);fill-opacity:1;" d="M 161.023438 193.367188 L 178.023438 193.367188 L 178.023438 206.367188 L 161.023438 206.367188 Z M 161.023438 193.367188 "/>
<g style="fill:rgb(0%,0%,100%);fill-opacity:1;">
  <use xlink:href="#glyph0-3" x="161.023438" y="203.268555"/>
  <use xlink:href="#glyph0-2" x="169.006836" y="203.268555"/>
</g>
<path style="fill:none;stroke-width:1.2;stroke-linecap:butt;stroke-linejoin:miter;stroke:rgb(0%,0%,0%);stroke-opacity:1;stroke-miterlimit:10;" d="M 191.53125 184.679688 L 215.9375 196.574219 "/>
<path style="fill:none;stroke-width:1.2;stroke-linecap:butt;stroke-linejoin:miter;stroke:rgb(0%,0%,0%);stroke-opacity:1;stroke-miterlimit:10;" d="M 215.9375 196.574219 L 217.835938 223.660156 "/>
<path style="fill:none;stroke-width:1.2;stroke-linecap:butt;stroke-linejoin:miter;stroke:rgb(0%,0%,0%);stroke-opacity:1;stroke-miterlimit:10;" d="M 222.5 198.835938 L 224.019531 220.503906 "/>
<path style="fill:none;stroke-width:1.2;stroke-linecap:butt;stroke-linejoin:miter;stroke:rgb(0%,0%,0%);stroke-opacity:1;stroke-miterlimit:10;" d="M 238.445312 181.386719 L 215.9375 196.574219 "/>
<path style="fill:none;stroke-width:1.2;stroke-linecap:butt;stroke-linejoin:miter;stroke:rgb(0%,0%,0%);stroke-opacity:1;stroke-miterlimit:10;" d="M 217.835938 223.660156 L 242.242188 235.558594 "/>
<path style="fill:none;stroke-width:1.2;stroke-linecap:butt;stroke-linejoin:miter;stroke:rgb(0%,0%,0%);stroke-opacity:1;stroke-miterlimit:10;" d="M 242.242188 235.558594 L 253.496094 227.964844 "/>
<path style="fill:none;stroke-width:1.2;stroke-linecap:butt;stroke-linejoin:miter;stroke:rgb(0%,0%,100%);stroke-opacity:1;stroke-miterlimit:10;" d="M 253.496094 227.964844 L 264.75 220.371094 "/>
<path style="fill:none;stroke-width:1.2;stroke-linecap:butt;stroke-linejoin:miter;stroke:rgb(0%,0%,0%);stroke-opacity:1;stroke-miterlimit:10;" d="M 240.921875 228.742188 L 249.921875 222.667969 "/>
<path style="fill:none;stroke-width:1.2;stroke-linecap:butt;stroke-linejoin:miter;stroke:rgb(0%,0%,100%);stroke-opacity:1;stroke-miterlimit:10;" d="M 249.921875 222.667969 L 258.925781 216.59375 "/>
<path style="fill:none;stroke-width:1.2;stroke-linecap:butt;stroke-linejoin:miter;stroke:rgb(0%,0%,100%);stroke-opacity:1;stroke-miterlimit:10;" d="M 264.75 220.371094 L 263.800781 206.828125 "/>
<path style="fill:none;stroke-width:1.2;stroke-linecap:butt;stroke-linejoin:miter;stroke:rgb(0%,0%,0%);stroke-opacity:1;stroke-miterlimit:10;" d="M 263.800781 206.828125 L 262.851562 193.285156 "/>
<path style=" stroke:none;fill-rule:nonzero;fill:rgb(100%,100%,100%);fill-opacity:1;" d="M 260.75 213.871094 L 268.75 213.871094 L 268.75 226.871094 L 260.75 226.871094 Z M 260.75 213.871094 "/>
<g style="fill:rgb(0%,0%,100%);fill-opacity:1;">
  <use xlink:href="#glyph0-3" x="260.75" y="223.772461"/>
</g>
<path style="fill:none;stroke-width:1.2;stroke-linecap:butt;stroke-linejoin:miter;stroke:rgb(0%,0%,0%);stroke-opacity:1;stroke-miterlimit:10;" d="M 262.851562 193.285156 L 238.445312 181.386719 "/>
<path style="fill:none;stroke-width:1.2;stroke-linecap:butt;stroke-linejoin:miter;stroke:rgb(0%,0%,0%);stroke-opacity:1;stroke-miterlimit:10;" d="M 257.609375 197.839844 L 238.085938 188.320312 "/>
<path style="fill:none;stroke-width:1.2;stroke-linecap:butt;stroke-linejoin:miter;stroke:rgb(0%,0%,0%);stroke-opacity:1;stroke-miterlimit:10;" d="M 122.113281 203.15625 L 120.226562 216.601562 "/>
<path style="fill:none;stroke-width:1.2;stroke-linecap:butt;stroke-linejoin:miter;stroke:rgb(0%,0%,100%);stroke-opacity:1;stroke-miterlimit:10;" d="M 120.226562 216.601562 L 118.339844 230.046875 "/>
<path style="fill:none;stroke-width:1.2;stroke-linecap:butt;stroke-linejoin:miter;stroke:rgb(0%,0%,0%);stroke-opacity:1;stroke-miterlimit:10;" d="M 97.707031 191.261719 L 122.113281 203.15625 "/>
<path style="fill:none;stroke-width:1.2;stroke-linecap:butt;stroke-linejoin:miter;stroke:rgb(0%,0%,100%);stroke-opacity:1;stroke-miterlimit:10;" d="M 118.339844 230.046875 L 104.96875 232.40625 "/>
<path style="fill:none;stroke-width:1.2;stroke-linecap:butt;stroke-linejoin:miter;stroke:rgb(0%,0%,0%);stroke-opacity:1;stroke-miterlimit:10;" d="M 104.96875 232.40625 L 91.601562 234.765625 "/>
<path style="fill:none;stroke-width:1.2;stroke-linecap:butt;stroke-linejoin:miter;stroke:rgb(0%,0%,100%);stroke-opacity:1;stroke-miterlimit:10;" d="M 114.554688 224.226562 L 103.859375 226.113281 "/>
<path style="fill:none;stroke-width:1.2;stroke-linecap:butt;stroke-linejoin:miter;stroke:rgb(0%,0%,0%);stroke-opacity:1;stroke-miterlimit:10;" d="M 103.859375 226.113281 L 93.164062 228.003906 "/>
<path style=" stroke:none;fill-rule:nonzero;fill:rgb(100%,100%,100%);fill-opacity:1;" d="M 114.339844 223.546875 L 122.339844 223.546875 L 122.339844 236.546875 L 114.339844 236.546875 Z M 114.339844 223.546875 "/>
<g style="fill:rgb(0%,0%,100%);fill-opacity:1;">
  <use xlink:href="#glyph0-3" x="114.339844" y="233.448242"/>
</g>
<path style="fill:none;stroke-width:1.2;stroke-linecap:butt;stroke-linejoin:miter;stroke:rgb(0%,0%,0%);stroke-opacity:1;stroke-miterlimit:10;" d="M 91.601562 234.765625 L 85.226562 222.78125 "/>
<path style="fill:none;stroke-width:1.2;stroke-linecap:butt;stroke-linejoin:miter;stroke:rgb(0%,0%,100%);stroke-opacity:1;stroke-miterlimit:10;" d="M 85.226562 222.78125 L 78.847656 210.796875 "/>
<path style="fill:none;stroke-width:1.2;stroke-linecap:butt;stroke-linejoin:miter;stroke:rgb(0%,0%,100%);stroke-opacity:1;stroke-miterlimit:10;" d="M 78.847656 210.796875 L 88.277344 201.027344 "/>
<path style="fill:none;stroke-width:1.2;stroke-linecap:butt;stroke-linejoin:miter;stroke:rgb(0%,0%,0%);stroke-opacity:1;stroke-miterlimit:10;" d="M 88.277344 201.027344 L 97.707031 191.261719 "/>
<path style="fill:none;stroke-width:1.2;stroke-linecap:butt;stroke-linejoin:miter;stroke:rgb(0%,0%,100%);stroke-opacity:1;stroke-miterlimit:10;" d="M 78.847656 210.796875 L 65.40625 208.910156 "/>
<path style="fill:none;stroke-width:1.2;stroke-linecap:butt;stroke-linejoin:miter;stroke:rgb(0%,0%,0%);stroke-opacity:1;stroke-miterlimit:10;" d="M 65.40625 208.910156 L 51.960938 207.023438 "/>
<path style=" stroke:none;fill-rule:nonzero;fill:rgb(100%,100%,100%);fill-opacity:1;" d="M 74.847656 204.296875 L 82.847656 204.296875 L 82.847656 217.296875 L 74.847656 217.296875 Z M 74.847656 204.296875 "/>
<g style="fill:rgb(0%,0%,100%);fill-opacity:1;">
  <use xlink:href="#glyph0-3" x="74.847656" y="214.198242"/>
</g>
<path style="fill:none;stroke-width:1.2;stroke-linecap:butt;stroke-linejoin:miter;stroke:rgb(0%,0%,0%);stroke-opacity:1;stroke-miterlimit:10;" d="M 97.707031 191.261719 L 96.757812 177.71875 "/>
<path style="fill:none;stroke-width:1.2;stroke-linecap:butt;stroke-linejoin:miter;stroke:rgb(0%,0%,100%);stroke-opacity:1;stroke-miterlimit:10;" d="M 96.757812 177.71875 L 95.804688 164.175781 "/>
<path style="fill:none;stroke-width:1.2;stroke-linecap:butt;stroke-linejoin:miter;stroke:rgb(0%,0%,0%);stroke-opacity:1;stroke-miterlimit:10;" d="M 103.890625 188.105469 L 103.128906 177.269531 "/>
<path style="fill:none;stroke-width:1.2;stroke-linecap:butt;stroke-linejoin:miter;stroke:rgb(0%,0%,100%);stroke-opacity:1;stroke-miterlimit:10;" d="M 103.128906 177.269531 L 102.371094 166.4375 "/>
<path style=" stroke:none;fill-rule:nonzero;fill:rgb(100%,100%,100%);fill-opacity:1;" d="M 91.804688 157.675781 L 99.804688 157.675781 L 99.804688 170.675781 L 91.804688 170.675781 Z M 91.804688 157.675781 "/>
<g style="fill:rgb(0%,0%,100%);fill-opacity:1;">
  <use xlink:href="#glyph0-3" x="91.804688" y="167.577148"/>
</g>
<path style="fill:none;stroke-width:1.2;stroke-linecap:butt;stroke-linejoin:miter;stroke:rgb(0%,0%,0%);stroke-opacity:1;stroke-miterlimit:10;" d="M 51.960938 207.023438 L 35.25 228.421875 "/>
<path style="fill:none;stroke-width:1.2;stroke-linecap:butt;stroke-linejoin:miter;stroke:rgb(0%,0%,0%);stroke-opacity:1;stroke-miterlimit:10;" d="M 51.960938 207.023438 L 41.785156 181.851562 "/>
<path style="fill:none;stroke-width:1.2;stroke-linecap:butt;stroke-linejoin:miter;stroke:rgb(0%,0%,0%);stroke-opacity:1;stroke-miterlimit:10;" d="M 137.019531 79.628906 L 159.527344 64.441406 "/>
</g>
</svg>

<svg xmlns="http://www.w3.org/2000/svg" xmlns:xlink="http://www.w3.org/1999/xlink" width="300pt" height="300pt" viewBox="0 0 300 300"><defs><symbol overflow="visible"><path d="M.547 1.938V-7.75h5.5v9.688zm.625-.61h4.266v-8.47H1.171zm0 0"/></symbol><symbol overflow="visible" id="a"><path d="M4.328-7.28c-.78 0-1.406.296-1.875.89-.46.585-.687 1.382-.687 2.39 0 1.012.226 1.813.687 2.406.47.586 1.094.875 1.875.875.79 0 1.414-.288 1.875-.874.457-.593.688-1.394.688-2.406 0-1.008-.23-1.805-.687-2.39-.46-.594-1.086-.89-1.875-.89zm0-.892c1.125 0 2.024.383 2.703 1.14C7.708-6.28 8.048-5.27 8.048-4c0 1.262-.34 2.273-1.016 3.03C6.353-.22 5.454.157 4.33.157S2.3-.22 1.625-.97c-.668-.75-1-1.757-1-3.03 0-1.27.332-2.28 1-3.03.676-.76 1.578-1.142 2.703-1.142zm0 0"/></symbol><symbol overflow="visible" id="b"><path d="M1.078-8.016h1.094v3.282H6.11v-3.282h1.077V0H6.11v-3.813H2.17V0H1.078zm0 0"/></symbol><symbol overflow="visible" id="c"><path d="M1.078-8.016h1.47l3.546 6.704v-6.704h1.062V0H5.688L2.124-6.703V0H1.078zm0 0"/></symbol></defs><g><path fill="#fff" d="M0 0h300v300H0z"/><path d="M163.324 118.613l-2.88 27.418 9.56-.667zm0 0"/><path d="M157.227 139.195h17v13h-17zm0 0" fill="#fff"/><g fill="#f00"><use xlink:href="#a" x="157.227" y="149.097"/><use xlink:href="#b" x="165.627" y="149.097"/></g><path d="M163.324 118.613l-24.406-11.898M163.324 118.613l22.508-15.187" stroke-width="1.2" stroke="#000" stroke-miterlimit="10" fill="none"/><path d="M138.918 106.715l-25.184 11.215 5.36 7.945zm0 0"/><path d="M138.918 106.715L137.02 79.63" stroke-width="1.2" stroke="#000" stroke-miterlimit="10" fill="none"/><path d="M116.414 121.902l.95 13.543" stroke-width="1.2" stroke="#00f" stroke-miterlimit="10" fill="none"/><path d="M117.363 135.445l.95 13.543" stroke-width="1.2" stroke="#000" stroke-miterlimit="10" fill="none"/><path d="M108.414 115.402h17v13h-17zm0 0" fill="#fff"/><g fill="#00f"><use xlink:href="#c" x="108.414" y="125.304"/><use xlink:href="#b" x="116.397" y="125.304"/></g><path d="M118.313 148.988l12.203 5.95" stroke-width="1.2" stroke="#000" stroke-miterlimit="10" fill="none"/><path d="M130.516 154.938l12.203 5.945" stroke-width="1.2" stroke="#00f" stroke-miterlimit="10" fill="none"/><path d="M117.953 155.918l9.762 4.762" stroke-width="1.2" stroke="#000" stroke-miterlimit="10" fill="none"/><path d="M127.715 160.68l9.765 4.757M95.805 164.176l11.254-7.594" stroke-width="1.2" stroke="#00f" stroke-miterlimit="10" fill="none"/><path d="M107.06 156.582l11.252-7.594" stroke-width="1.2" stroke="#000" stroke-miterlimit="10" fill="none"/><path d="M142.72 160.883l.948 13.543" stroke-width="1.2" stroke="#00f" stroke-miterlimit="10" fill="none"/><path d="M143.668 174.426l.95 13.543" stroke-width="1.2" stroke="#000" stroke-miterlimit="10" fill="none"/><path d="M138.72 154.383h8v13h-8zm0 0" fill="#fff"/><use xlink:href="#c" x="138.719" y="164.284" fill="#00f"/><path d="M144.617 187.97l12.203 5.948" stroke-width="1.2" stroke="#000" stroke-miterlimit="10" fill="none"/><path d="M156.82 193.918l12.203 5.95" stroke-width="1.2" stroke="#00f" stroke-miterlimit="10" fill="none"/><path d="M144.617 187.97l-22.504 15.186M138.793 184.19l-18.004 12.154" stroke-width="1.2" stroke="#000" stroke-miterlimit="10" fill="none"/><path d="M169.023 199.867l11.254-7.594" stroke-width="1.2" stroke="#00f" stroke-miterlimit="10" fill="none"/><path d="M180.277 192.273l11.254-7.593" stroke-width="1.2" stroke="#000" stroke-miterlimit="10" fill="none"/><path d="M161.023 193.367h17v13h-17zm0 0" fill="#fff"/><g fill="#00f"><use xlink:href="#c" x="161.023" y="203.269"/><use xlink:href="#b" x="169.007" y="203.269"/></g><path d="M191.53 184.68l24.407 11.894M215.938 196.574l1.898 27.086M222.5 198.836l1.52 21.668M238.445 181.387l-22.507 15.187M217.836 223.66l24.406 11.9M242.242 235.56l11.254-7.595" stroke-width="1.2" stroke="#000" stroke-miterlimit="10" fill="none"/><path d="M253.496 227.965l11.254-7.594" stroke-width="1.2" stroke="#00f" stroke-miterlimit="10" fill="none"/><path d="M240.922 228.742l9-6.074" stroke-width="1.2" stroke="#000" stroke-miterlimit="10" fill="none"/><path d="M249.922 222.668l9.004-6.074M264.75 220.37l-.95-13.542" stroke-width="1.2" stroke="#00f" stroke-miterlimit="10" fill="none"/><path d="M263.8 206.828l-.948-13.543" stroke-width="1.2" stroke="#000" stroke-miterlimit="10" fill="none"/><path d="M260.75 213.87h8v13h-8zm0 0" fill="#fff"/><use xlink:href="#c" x="260.75" y="223.772" fill="#00f"/><path d="M262.852 193.285l-24.407-11.898M257.61 197.84l-19.524-9.52M122.113 203.156l-1.886 13.446" stroke-width="1.2" stroke="#000" stroke-miterlimit="10" fill="none"/><path d="M120.227 216.602l-1.887 13.445" stroke-width="1.2" stroke="#00f" stroke-miterlimit="10" fill="none"/><path d="M97.707 191.262l24.406 11.894" stroke-width="1.2" stroke="#000" stroke-miterlimit="10" fill="none"/><path d="M118.34 230.047l-13.37 2.36" stroke-width="1.2" stroke="#00f" stroke-miterlimit="10" fill="none"/><path d="M104.97 232.406l-13.368 2.36" stroke-width="1.2" stroke="#000" stroke-miterlimit="10" fill="none"/><path d="M114.555 224.227l-10.696 1.886" stroke-width="1.2" stroke="#00f" stroke-miterlimit="10" fill="none"/><path d="M103.86 226.113l-10.696 1.89" stroke-width="1.2" stroke="#000" stroke-miterlimit="10" fill="none"/><path d="M114.34 223.547h8v13h-8zm0 0" fill="#fff"/><use xlink:href="#c" x="114.34" y="233.448" fill="#00f"/><path d="M91.602 234.766l-6.375-11.985" stroke-width="1.2" stroke="#000" stroke-miterlimit="10" fill="none"/><path d="M85.227 222.78l-6.38-11.983M78.848 210.797l9.43-9.77" stroke-width="1.2" stroke="#00f" stroke-miterlimit="10" fill="none"/><path d="M88.277 201.027l9.43-9.765" stroke-width="1.2" stroke="#000" stroke-miterlimit="10" fill="none"/><path d="M78.848 210.797l-13.442-1.887" stroke-width="1.2" stroke="#00f" stroke-miterlimit="10" fill="none"/><path d="M65.406 208.91l-13.445-1.887" stroke-width="1.2" stroke="#000" stroke-miterlimit="10" fill="none"/><path d="M74.848 204.297h8v13h-8zm0 0" fill="#fff"/><use xlink:href="#c" x="74.848" y="214.198" fill="#00f"/><path d="M97.707 191.262l-.95-13.543" stroke-width="1.2" stroke="#000" stroke-miterlimit="10" fill="none"/><path d="M96.758 177.72l-.953-13.544" stroke-width="1.2" stroke="#00f" stroke-miterlimit="10" fill="none"/><path d="M103.89 188.105l-.76-10.835" stroke-width="1.2" stroke="#000" stroke-miterlimit="10" fill="none"/><path d="M103.13 177.27l-.76-10.833" stroke-width="1.2" stroke="#00f" stroke-miterlimit="10" fill="none"/><path d="M91.805 157.676h8v13h-8zm0 0" fill="#fff"/><use xlink:href="#c" x="91.805" y="167.577" fill="#00f"/><path d="M51.96 207.023l-16.71 21.4M51.96 207.023l-10.175-25.17M137.02 79.63l22.507-15.19" stroke-width="1.2" stroke="#000" stroke-miterlimit="10" fill="none"/></g></svg>
